X:489
T:Primrose Lass, The
R:reel
H:See also #104, #618
Z:id:hn-reel-489
M:C|
K:A
c2Bc ABAF|EFAB cB~B2|fccB ABAF|EFAB cA~A2:|
|:ce~e2 feae|ceae fB~B2|1 ce~e2 feaf|ecBd cA~A2:|2 agfe faec|dcBd cA~A2||
